X: 1
T: All Ducks In A Row
C: Anselm Lingnau
R: jig
B: Anselm Lingnau "Nine Weddings (And No Funeral)" p.15
F: http://www.anselms.net/SCD/wbook/wbook.pdf
Z: 2012 John Chambers <jc:trillian.mit.edu>
N: A couple of chords (possibly typos) were changed as we played this tune ...
M: 6/8
L: 1/8
K: C
G |\
"C"cBA GAB | cde g3 | "Dm"afd "C"gec | "Dm"Adc "G"BAG |\
"C"cBA GAB | cde g3 | "F"def "G7"Bcd | "C"c3 c2 :|
z |\
"G"d2f B3 | "C"e2g c3 | "Dm"afd "C"gec | "Dm"Adc "G"BAG |\
"G"d2f B3 | "C"e2g c3 | "G"Bdf "G7"fdB | "C"c3 c3 ||
"G"d2f B3 | "C"e2g c3 | "Dm"afd "C"gec | "Dm"Adc "G"BAG |\
"F"A2c "(G)"cBA | "C"Gce gfe | "F"def "G7"Bcd | "C"c3 c2 |]
